**kern	**kern	**kern	**kern	**harm
*staff4	*staff3	*staff2	*staff1	*staff1
=1-	=1-	=1-	=1-	=1-
*clefF4	*clefF4	*clefG2	*clefG2	*
*k[b-e-]	*k[b-e-]	*k[b-e-]	*k[b-e-]	*
*M4/4	*M4/4	*M4/4	*M4/4	*
*	*	*	*MM112	*
*B-:	*B-:	*B-:	*B-:	*B-:
4BB-'/	4B-'\ 4f'\	4f'/ 4dd'/	4d'/ 4b-'/ 4ff'/	I
4E-'\	4B-'\ 4g'\	4g'/ 4cc'/	4g'\ 4ee-'\	ii6
4F'\	4B-'\ 4f'\	4d'/ 4b-'/	4f'/ 4dd'/	C64
4FF'/	4c'\ 4e-'\	4c'/ 4e-'/ 4a'/	4c'/ 4e-'/ 4a'/	V7
=2	=2	=2	=2	=2
4BB-/ 4D/	4B-\ 4d\	4B-/ 4d/ 4b-/	4B-/ 4d/ 4b-/	I
4r	4r	4r	4r	.
2r	2r	2r	2r	.
=3	=3	=3	=3	=3
4BB-/	4D'\	4B-'/	2ff\	I
4r	4B-'\	4d'/	.	.
2r	4d'\	4f'/	4dd\	.
.	4r	4r	4b-\	.
=4	=4	=4	=4	=4
4BB-/	4D'\	4f'/	4.bb-\	.
4r	4B-'\	4d'/	.	.
.	.	.	16ddd\LL	.
.	.	.	16bb-\JJ	.
2r	4d'\	4f'/	4ff\	.
.	4r	8r	8r	.
.	.	8f/	8dd\	.
=5	=5	=5	=5	=5
!!linebreak:original
1FF	2r	4e-/	4cc\	V7
.	.	4d/	4bn\	.
.	4A\	4e-/	4cc\	.
.	4e-\	4c/	4a/	.
=6	=6	=6	=6	=6
4BB-/	4d\	4d/	4b-'\	I
4r	4r	4r	4dd'\	.
2r	2r	4r	4ff\	.
.	.	8r	8r	.
.	.	8f/	8dd\	.
=7	=7	=7	=7	=7
1FF	2.A\	4e-/	4cc\	V7
.	.	4d/	4bn\	.
.	.	4e-/	4cc\	.
.	4E-\	4c/	4a/	.
=8	=8	=8	=8	=8
8BB-/L	16D\LL	8B-/L	4d/ 4b-/	I
.	16F\	.	.	.
8BB-/	16B-\	8d/ 8f/	.	.
*	*clefG2	*	*	*
.	16d\JJ	.	.	.
8BB-/	8f/L	8d/ 8f/	8r	.
8BB-/J	8f/J	8d/J 8f/	16dd\LL	.
.	.	.	16b-\JJ	.
8BB-/L	8f/L	8c/L 8e-/	16a/LL	V7
.	.	.	16b-/	.
8BB-/	8f/	8c/ 8e-/	16a/	.
.	.	.	16b-/JJ	.
8BB-/	8f/	8c/ 8e-/	16a\LL	.
.	.	.	16b-\	.
8BB-/J	8f/J	8c/J 8e-/	16cc\	.
.	.	.	16a\JJ	.
=9	=9	=9	=9	=9
!!linebreak:original
*	*clefF4	*	*	*
8BB-\L	16D\LL	8d/L	4b-\	I
.	16F\	.	.	.
8B-\	16B-\	8d/ 8b-/	.	.
*	*clefG2	*	*	*
.	16d\JJ	.	.	.
8BB-\	8f/L	8d/ 8b-/	8r	.
8BB-\J	8f/J	8d/J 8b-/	16ff\LL	.
.	.	.	16ddd\JJ	.
8BB-/L	8f/L	8e-/L 8a/	16ccc\LL	V7
.	.	.	16bbn\	.
8BB-/	8f/	8e-/ 8a/	16ccc\	.
.	.	.	16bb\JJ	.
8BB-/	8f/	8e-/ 8a/	16ccc\LL	.
.	.	.	16eee-\	.
8BB-/J	8f/J	8e-/J 8a/	16ccc\	.
.	.	.	16aa\JJ	.
=10	=10	=10	=10	=10
8BB-\L	8f/L	8d/L 8b-/	4bb-\	I
8B-\	8d/	8f/	.	.
8B-\	8d/	8f/	8r	.
8B-\J	8d/J	8f/J	16dd\LL	.
.	.	.	16b-\JJ	.
2B-\	2e-/	2g-/	16a/LL	viio7
.	.	.	16b-/	.
.	.	.	16a/	.
.	.	.	16b-/JJ	.
.	.	.	16a\LL	.
.	.	.	16b-\	.
.	.	.	16cc\	.
.	.	.	16a\JJ	.
=11	=11	=11	=11	=11
!!pagebreak:original
8BB-\L	8d/L	8f/L	4b-\	I
8B-\	8B-/	8d/	.	.
8B-\	8d/	8f/	8r	.
8B-\J	8d/J	8f/J	16ff\LL	.
.	.	.	16ddd\JJ	.
2B-\	2e-/	2g-/	16ccc\LL	viio7
.	.	.	16bbn\	.
.	.	.	16ccc\	.
.	.	.	16bb\JJ	.
.	.	.	16ccc\LL	.
.	.	.	16eee-\	.
.	.	.	16ccc\	.
.	.	.	16aa\JJ	.
=12	=12	=12	=12	=12
8BB-\L	8d/L	8f/L	8bb-\	I
8B-\	8d/	8f/	4bb-\	.
8B-\	8d/	8f/	.	.
8B-\J	8d/J	8f/J	16ddd\LL	.
.	.	.	16bb-\JJ	.
*clefG2	*	*	*	*
8c/L	8e-/L	8f/L	8aa\	V43
8c/	8e-/	8f/	4aa\	.
8c/	8e-/	8f/	.	.
8c/J	8e-/J	8f/J	16ccc\LL	.
.	.	.	16aa\JJ	.
=13	=13	=13	=13	=13
!!linebreak:original
8B-/L	8d/	8f/	8bb-\	I
*clefF4	*	*	*	*
8B-/	4d/	4f/	4bb-\	.
8B-/	.	.	.	.
8B-/J	8d/	8f/	16ddd\LL	.
.	.	.	16bb-\JJ	.
8F\L	8c/	8e-/	8aa\	V7
8F\	4c/	4e-/	4aa\	.
8F\	.	.	.	.
8F\J	8c/	8e-/	16ccc\LL	.
.	.	.	16aa\JJ	.
=14	=14	=14	=14	=14
4D\	8B-/	8d/	8bb-\	I6
*	*	*clefF4	*	*
.	4dd\	4B-\	4ddd\	.
4DD/	.	.	.	.
.	8f#/	[8B-\	8ff#\	I+
4EE-/	8g/	8B-\]	8gg\	IV
.	4b-\	4B-\	4bb-\	.
4FF/	.	.	.	I64
.	8d/	[8B-\	8dd\	.
=15	=15	=15	=15	=15
4GG/	8c/	8B-\]	8cc\	V43/V
.	4b-\	4B-\	4bb-\	.
4FF/	.	.	.	.
.	8c/	[8B-\	8cc\	.
4EEn/	8d-/	8B-\]	8dd-\	viio7/V
.	4b-\	4B-\	4bb-\	.
4En\	.	.	.	.
*	*	*clefG2	*	*
.	8B-/	8d-/	8b-\	.
=16	=16	=16	=16	=16
!!linebreak:original
4F\	4A/	4c/	8a\L	V
.	.	.	8ff\	.
4r	4r	4r	8ff\	.
.	.	.	8ff\J	.
2r	4r	4r	8ff\L	.
.	.	.	8ff\	.
.	8r	8r	8ff\	.
.	8bn\	8dd\	8ff\J	viio/V
=17	=17	=17	=17	=17
1r	4cc\	4ee-\	[1ff	V7
.	4bn\	4dd\	.	.
.	4cc\	4ee-\	.	.
.	8r	8r	.	.
.	8d/	8bn\	.	.
=18	=18	=18	=18	=18
2r	4e-/	4cc\	2.ff\_	V42
.	4d/	4bn\	.	.
4r	[2e-/	[2cc\	.	.
8r	.	.	8ff\L]	.
8F\	.	.	8aa-\J	v
=19	=19	=19	=19	=19
4A\	1e-_	1cc_	4gg-\	viio7
4B-\	.	.	4ff\	.
4.A\	.	.	4.gg-\	.
8B-\	.	.	8ff\	.
=20	=20	=20	=20	=20
!!pagebreak:original
1A	1e-]	1cc]	1gg-	.
=21	=21	=21	=21	=21
*	*clefF4	*	*	*
4BB-/	4D'\	4d'/	2ff\	I
4r	4B-'\	4d'/	.	.
2r	4d'\	4f'/	4dd\	.
.	4r	4r	4b-\	.
=22	=22	=22	=22	=22
4BB-/	4D'\	4f'/	4.bb-\	.
4r	4B-'\	4d'/	.	.
.	.	.	16ddd\LL	.
.	.	.	16bb-\JJ	.
2r	4d'\	4f'/	4ff\	.
.	4r	8r	8r	.
.	.	8f/	8dd\	.
=23	=23	=23	=23	=23
1FF	2.A\	4e-/	4cc\	V7
.	.	4d/	4bn\	.
.	.	4e-/	4cc\	.
.	4e-\	4c/	4a/	.
=24	=24	=24	=24	=24
4BB-/	4d\	4d/	4b-'\	I
4r	4r	4r	4dd'\	.
2r	2r	4r	4ff\	.
.	.	8r	8r	.
.	.	8f/	8dd\	.
=25	=25	=25	=25	=25
*	*clefG2	*	*	*
2.F\	2.A/	4e-/	4cc\	V7
.	.	4d/	4bn\	.
.	.	4e-/	4cc\	.
4F#\	4e-/	4c/	4a/	viio7/vi
=26	=26	=26	=26	=26
!!linebreak:original
2.G\	4d/	4B-/	2.b-\	vi
.	4c#/	4A/	.	.
.	4d/	4B-/	.	.
*	*clefF4	*	*	*
4D\	4Bn\	4f/	4a-/	viio65/ii
=27	=27	=27	=27	=27
2.E-\	4c\	2f/	2a-/	ii
.	4Bn\	.	.	.
.	4c\	4e-/	4g/	.
4En\	[4B-\	[4d/	4g/	viihd7/V
=28	=28	=28	=28	=28
4F\	4B-\]	4d/]	4f/	I64
4G\	2B-\	2c/	4en/	V43/V
4F\	.	.	4f/	.
4En\	4B-\	4c/	4g/	V65/V
=29	=29	=29	=29	=29
2F\	2B-\	1c	2.f/	V7
2FF/	4A\	.	.	.
.	4E-\	.	4A/	.
=30	=30	=30	=30	=30
!!linebreak:original
2BB-/	16D/LL	16B-/LL	2B-/	I
.	16B-/	16d/	.	.
*	*clefG2	*	*	*
.	16d/	16f/	.	.
.	16B-/JJ	16d/JJ	.	.
.	16d/LL	16f/LL	.	.
.	16B-/	16d/	.	.
.	16d/	16f/	.	.
*	*clefF4	*	*	*
.	16B-/JJ	16d/JJ	.	.
2r	16D\LL	16B-/LL	4d/	.
.	16B-\	16d/	.	.
.	16d\	16f/	.	.
.	16B-\JJ	16d/JJ	.	.
*	*clefG2	*	*	*
.	16d/LL	16f/LL	4f/	.
.	16B-/	16d/	.	.
.	16d/	16f/	.	.
.	16B-/JJ	16d/JJ	.	.
=31	=31	=31	=31	=31
1r	16f\LL	16d/LL	4b-\	.
.	16d\	16f/	.	.
*	*clefF4	*	*	*
.	16B-\	16b-/	.	.
.	16d\JJ	16f/JJ	.	.
.	16B-\LL	16b-/LL	4dd\	.
.	16d\	16f/	.	.
.	16B-\	16b-/	.	.
.	16d\JJ	16f/JJ	.	.
.	16F/LL	16d/LL	4ff\	.
*	*clefG2	*	*	*
.	16d/	16f/	.	.
.	16B-/	16b-/	.	.
.	16d/JJ	16f/JJ	.	.
.	16B-/LL	16b-/LL	4bb-\	.
.	16d/	16f/	.	.
.	16B-/	16b-/	.	.
.	16d/JJ	16f/JJ	.	.
=32	=32	=32	=32	=32
!!pagebreak:original
*F:	*F:	*F:	*F:	*F:
2CC/	16B-/LL	16g/LL	[1eeen	V7
.	16g/	16b-/	.	.
.	16b-/	16cc/	.	.
.	16g/JJ	16b-/JJ	.	.
.	16b-/LL	16cc\LL	.	.
.	16g/	16b-\	.	.
.	16b-/	16cc\	.	.
.	16g/JJ	16b-\JJ	.	.
4EEn/	16c/LL	16g/LL	.	.
.	16g/	16b-/	.	.
.	16b-/	16cc/	.	.
.	16g/JJ	16b-/JJ	.	.
4GG/	16b-/LL	16cc\LL	.	.
.	16g/	16b-\	.	.
.	16b-/	16cc\	.	.
.	16g/JJ	16b-\JJ	.	.
=33	=33	=33	=33	=33
4C/	16en/LL	16g/LL	8eee\]	.
.	16g/	16b-/	.	.
.	16b-/	16cc/	4eeen\	.
.	16g/JJ	16b-/JJ	.	.
4En\	16b-/LL	16g/LL	.	.
.	16g/	16b-/	.	.
.	16b-/	16cc/	[8eee\	.
.	16g/JJ	16b-/JJ	.	.
4G\	16c/LL	16g/LL	8eee\]	.
.	16g/	16b-/	.	.
.	16b-/	16cc/	4eee\	.
.	16g/JJ	16b-/JJ	.	.
4c\	16b-/LL	16g/LL	.	.
.	16g/	16b-/	.	.
.	16b-/	16cc/	8ccc\	.
.	16g/JJ	16b-/JJ	.	.
=34	=34	=34	=34	=34
!!linebreak:original
8FF/L	16A/LL	16f/LL	1fff	I
.	16f/	16a/	.	.
8AA/	16a/	16cc/	.	.
.	16f/JJ	16a/JJ	.	.
8C/	16a/LL	16cc\LL	.	.
.	16f/	16a\	.	.
8En/J	16a/	16cc\	.	.
.	16f/JJ	16a\JJ	.	.
8F/L	16A/LL	16f/LL	.	.
.	16f/	16a/	.	.
8A/	16a/	16cc/	.	.
.	16f/JJ	16a/JJ	.	.
*clefG2	*	*	*	*
8c/	16a/LL	16cc\LL	.	.
.	16f/	16a\	.	.
8f/J	16a/	16cc\	.	.
.	16f/JJ	16a\JJ	.	.
=35	=35	=35	=35	=35
*clefF4	*	*	*	*
8DD/L	16d/LL	16f/LL	1bbn	V43/V
.	16f/	16g/	.	.
8FF/	16g/	16bn/	.	.
.	16f/JJ	16g/JJ	.	.
8BBn/	16d/LL	16f/LL	.	.
.	16f/	16g/	.	.
8D/J	16d/	16f/	.	.
.	16f/JJ	16g/JJ	.	.
8F\L	16d/LL	16f/LL	.	.
.	16f/	16g/	.	.
8Bn\	16g/	16b/	.	.
.	16f/JJ	16g/JJ	.	.
8d\	16d/LL	16f/LL	.	.
.	16f/	16g/	.	.
8D\J	16d/	16f/	.	.
.	16f/JJ	16g/JJ	.	.
=36	=36	=36	=36	=36
!!linebreak:original
8CC/L	16c/LL	16en/LL	2ccc\	V
.	16en/	16g/	.	.
8C/	16g/	16cc/	.	.
.	16e/JJ	16g/JJ	.	.
8c/	16c/LL	16e/LL	.	.
.	16e/	16g/	.	.
8C/J	16c/	16e/	.	.
.	16e/JJ	16g/JJ	.	.
8CC/L	16d/LL	16f/LL	4.fff\	V7/V
.	16f/	16g/	.	.
8C/	16g/	16bn/	.	.
.	16f/JJ	16g/JJ	.	.
8c/	16d/LL	16f/LL	.	.
.	16f/	16g/	.	.
8C/J	16d/	16f/	8bbn\	.
.	16f/JJ	16g/JJ	.	.
=37	=37	=37	=37	=37
4CC/	4en/	8en/L	8ccc\L	V
.	.	16c/L	16cc\L	.
.	.	16d/JJ	16dd\JJ	.
4r	4r	16e/LL	16een\LL	.
.	.	16f/	16ff\	.
.	.	16g/	16gg\	.
.	.	16e/JJ	16ee\JJ	.
8r	8r	8c/L	8cc/L	.
16C/LL	16c/LL	16c/L	16c/L	.
16D/JJ	16d/JJ	16d/JJ	16d/JJ	.
16En\LL	16e/LL	16e/LL	16en/LL	.
16F\	16f/	16f/	16f/	.
16G\	16g/	16g/	16g/	.
16E\JJ	16e/JJ	16e/JJ	16e/JJ	.
=38	=38	=38	=38	=38
4C/	4c/	4c/	4c/	.
4c\	4cc\	4cc\	4ccc\	.
*	*clefF4	*	*	*
4CC/	4C/	4c/	4c/	.
4r	4r	4r	4r	.
=39	=39	=39	=39	=39
!!pagebreak:original
8r	8r	2cc\	2ccc\	V6
8En\L	8G\L	.	.	.
8F\	8A\	.	.	.
8G\J	8B-\J	.	.	.
*	*clefG2	*	*	*
8A\L	8c/L	4a/	4aa\	I6
8B-\	8d/	.	.	.
8c\	8en/	4f/	4ff\	.
8d\J	8f/J	.	.	.
=40	=40	=40	=40	=40
8r	8r	2dd\	2ddd\	V6/ii
8F#\L	8A/L	.	.	.
8G\	8B-/	.	.	.
8A\J	8c/J	.	.	.
*clefG2	*	*	*	*
8B-/L	8d/L	4b-\	4bb-\	ii
8c/	8en/	.	.	.
8d/	8f/	4g/	4gg\	.
8en/J	8g/J	.	.	.
=41	=41	=41	=41	=41
4f/	2a/	2f/	8aa\L	vi
.	.	.	8cc#\	.
4r	.	.	8dd\	.
.	.	.	8een\J	.
2r	4f/	4d/	8ff\L	IV
.	.	.	8gg\	.
.	4d/	4B-/	8aa\	.
.	.	.	8bb-\J	.
=42	=42	=42	=42	=42
!!linebreak:original
1r	2b-\	2g/	8r	.
.	.	.	8dd#\L	XV65
.	.	.	8een\	.
.	.	.	8ff\J	.
.	4g/	4en/	8gg\L	.
.	.	.	8aa\	.
.	4en/	4c/	8bb-\	.
.	.	.	8ccc\J	.
=43	=43	=43	=43	=43
8r	8f/L	4r	2aa\	vi
*clefF4	*	*	*	*
8C#\L	8en/	.	.	.
8D\	8f/	2a/	.	.
8En\J	8c#/J	.	.	.
8F\L	4d/	.	4ff\	.
8G\	.	.	.	.
8A\	4r	4f/	4dd\	.
8B-\J	.	.	.	.
=44	=44	=44	=44	=44
8r	8a/L	4d/	2ddd\	ii
8FF#/L	8cc/	.	.	.
8GG/	8b-/	2dd\	.	.
8AA/J	8f#/J	.	.	.
8BB-/L	4g/	.	4bb-\	.
8AA/	.	.	.	.
8BB-/	4r	4b-\	4gg\	.
8BBn/J	.	.	.	.
=45	=45	=45	=45	=45
!!linebreak:original
1C	4r	1g	8ff\L	V6
.	.	.	8een\	.
*	*clefF4	*	*	*
.	4En\	.	8aa\	.
.	.	.	8gg\J	.
.	4G\	.	8ff\L	.
.	.	.	8ee\	.
.	4Bn\	.	8dd\	.
.	.	.	8cc\J	.
=46	=46	=46	=46	=46
1BB-	2c\	8r	2cc\	V42
.	.	8en/L	.	.
.	.	8a/	.	.
.	.	8g/J	.	.
.	4G\	8f/L	4een\	.
.	.	8e/	.	.
.	4En\	8d/	4gg\	.
.	.	8c/J	.	.
=47	=47	=47	=47	=47
1AA	2c\	8r	2cc\	I
.	.	8g/L	.	.
.	.	8b-/	.	.
.	.	8a/J	.	.
.	4A\	8g/L	4ff\	.
.	.	8f/	.	.
.	4F\	8en/	4aa\	.
.	.	8f/J	.	.
=48	=48	=48	=48	=48
1BB-	8C/L	2c/	[1cc	V42
*	*clefG2	*	*	*
.	8en/	.	.	.
.	8a/	.	.	.
.	8g/J	.	.	.
.	8f/L	4en/	.	.
.	8e/	.	.	.
.	8d/	4g/	.	.
.	8c/J	.	.	.
=49	=49	=49	=49	=49
!!pagebreak:original
2.AA/	8r	4f/	2cc\_	I6
.	8en/L	.	.	.
.	8g/	4r	.	.
.	8f/J	.	.	.
.	8e/L	2r	8cc/L]	.
.	8d/	.	8b-/	.
4BB-/	8c/	.	8a/	.
*	*clefF4	*	*	*
.	8B-/J	.	8g/J	.
=50	=50	=50	=50	=50
8C\L	2.A\	2r	2.f/	C64
8C#\	.	.	.	.
8En\	.	.	.	.
8D\J	.	.	.	.
2Cn/	.	4r	.	.
.	8c\L	4en/	8a/L	V7
.	8B-\J	.	8g/J	.
=51	=51	=51	=51	=51
4F'\	4A'\	4f'/	16f\LL	I
.	.	.	16a\	.
.	.	.	16cc\	.
.	.	.	16ff\JJ	.
*	*clefG2	*	*	*
4F'\	4c'/	4b-'\	16een\LL	V7
.	.	.	16gg\	.
.	.	.	16ee\	.
.	.	.	16cc\JJ	.
4F'\	4c'/	4a'/	16ff\LL	I
.	.	.	16ccc\	.
.	.	.	16aa\	.
.	.	.	16ff\JJ	.
4F'\	4en'/	4b-'\	16ee\LL	V7
.	.	.	16gg\	.
.	.	.	16ee\	.
.	.	.	16cc\JJ	.
=52	=52	=52	=52	=52
!!linebreak:original
4FF'/	4f'/	4a'/	16f\LL	I
.	.	.	16a\	.
.	.	.	16cc\	.
.	.	.	16ff\JJ	.
4F'\	4c'/	4g'/ 4b-'/	16een\LL	V7
.	.	.	16gg\	.
.	.	.	16ee\	.
.	.	.	16cc\JJ	.
4F'\	4c'/	4f'/ 4a'/	16ff\LL	I
.	.	.	16ccc\	.
.	.	.	16aa\	.
.	.	.	16ff\JJ	.
4F'\	4en'/	4g'/ 4b-'/	16ee\LL	V7
.	.	.	16gg\	.
.	.	.	16ee\	.
.	.	.	16cc\JJ	.
=53	=53	=53	=53	=53
1F	16f/LL	16a\LL	4ff\	I
.	16a/	16cc\	.	.
.	16cc/	16ff\	.	.
.	16a/JJ	16cc\JJ	.	.
.	16cc\LL	16a\LL	4aa\	.
.	16a\	16cc\	.	.
.	16cc\	16a\	.	.
.	16a\JJ	16cc\JJ	.	.
.	16f/LL	16a\LL	4ccc\	.
.	16a/	16cc\	.	.
.	16cc/	16ff\	.	.
.	16a/JJ	16cc\JJ	.	.
.	16cc\LL	16a\LL	4fff\	.
.	16a\	16cc\	.	.
.	16cc\	16a\	.	.
.	16a\JJ	16cc\JJ	.	.
=54	=54	=54	=54	=54
!!linebreak:original
1D	16d/LL	16bn\LL	2aaa\	vio6/V
.	16f/	16dd\	.	.
.	16bn/	16ff\	.	.
.	16f/JJ	16dd\JJ	.	.
.	16b/LL	16b\LL	.	.
.	16f/	16dd\	.	.
.	16b/	16b\	.	.
.	16f/JJ	16dd\JJ	.	.
.	16d/LL	16b\LL	2bbn\	.
.	16f/	16dd\	.	.
.	16b/	16ff\	.	.
.	16f/JJ	16dd\JJ	.	.
.	16b/LL	16b\LL	.	.
.	16f/	16dd\	.	.
.	16b/	16b\	.	.
.	16f/JJ	16dd\JJ	.	.
=55	=55	=55	=55	=55
4C/	8c/L	4cc\	4ccc\	V
.	16A/L	.	.	.
.	16B-/JJ	.	.	.
4r	16c/LL	4r	4r	.
.	16d/	.	.	.
.	16en/	.	.	.
.	16f/JJ	.	.	.
4C/	4c/	8r	2r	.
.	.	16a/LL	.	.
.	.	16b-/JJ	.	.
4r	4r	16cc\LL	.	.
.	.	16dd\	.	.
.	.	16een\	.	.
.	.	16ff\JJ	.	.
=56	=56	=56	=56	=56
!!pagebreak:original
4C/	1r	4cc\	8r	.
.	.	.	16aa\LL	C64
.	.	.	16bb-\JJ	.
4r	.	4r	16ccc\LL	.
.	.	.	16ddd\	.
.	.	.	16eeen\	.
.	.	.	16fff\JJ	.
2r	.	2r	8ccc\L	.
.	.	.	8aa\	.
.	.	.	8ff\	.
.	.	.	8cc\J	.
=57	=57	=57	=57	=57
1C	1B-	1G 1en	8b-/L	V7
.	.	.	8g/	.
.	.	.	8en/	.
.	.	.	8c/J	.
.	.	.	8B-/L	.
.	.	.	8G/	.
.	.	.	8b-/	.
.	.	.	8e/J	.
=58	=58	=58	=58	=58
4F'\	4A'/	4f'/	8r	I
.	.	.	8f/	.
4C'/	4en'/	4g'/	8r	V
.	.	.	8g/	.
4FF'/	4f'/	4a'/	8r	I
.	.	.	8a/	.
4r	4c'/	4en'/	16r	V
.	.	.	16g/LL	.
.	.	.	16f#/	.
.	.	.	16g/JJ	.
=59	=59	=59	=59	=59
!!linebreak:original
*	*clefF4	*	*	*
1r	4F\	4f'/	16r	I
.	.	.	16a/LL	.
.	.	.	16g#/	.
.	.	.	16a/JJ	.
.	4r	4g'/	16r	.
.	.	.	16b-/LL	.
.	.	.	16a/	.
.	.	.	16b-/JJ	.
.	2r	4a'/	16cc\LL	.
.	.	.	16dd\	.
.	.	.	16een\	.
.	.	.	16ff\JJ	.
.	.	4r	16ee\LL	.
.	.	.	16ff\	.
.	.	.	16ee\	.
.	.	.	16ff\JJ	.
=60	=60	=60	=60	=60
2r	16F\LL	2f/	2dd\	vi
.	16G\	.	.	.
.	16A\	.	.	.
.	16B-\JJ	.	.	.
.	16A\LL	.	.	.
.	16B-\	.	.	.
.	16A\	.	.	.
.	16B-\JJ	.	.	.
16GG/LL	4C/	2g/	2een\	V
16AA/	.	.	.	.
16BB-/	.	.	.	.
16C/JJ	.	.	.	.
16BB-/LL	4c\	.	.	.
16C/	.	.	.	.
16BB-/	.	.	.	.
16C/JJ	.	.	.	.
=61	=61	=61	=61	=61
!!linebreak:original
4AA'/	4F'\	4cc'\	16ff\LL	I6
.	.	.	16cc\	.
.	.	.	16bn\	.
.	.	.	16cc\JJ	.
*	*clefG2	*	*	*
4En'\	4b-'\	4cc'\	16gg\LL	V65
.	.	.	16cc\	.
.	.	.	16b\	.
.	.	.	16cc\JJ	.
4F'\	4a'/	4cc'\	16aa\LL	I
.	.	.	16cc\	.
.	.	.	16b\	.
.	.	.	16cc\JJ	.
4G'\	4en'/	4cc'\	16bb-\LL	V43
.	.	.	16gg\	.
.	.	.	16ff\	.
.	.	.	16een\JJ	.
=62	=62	=62	=62	=62
4A\	4f/	8cc\L	8ccc\L	I6
.	.	8ff\	8aa\	.
4r	4r	8aa\	8ccc\	.
.	.	8ff\J	8aa\J	.
8r	8r	4aa\	4ccc\	.
*clefG2	*	*	*	*
8f/L	8a\L	.	.	.
8a/	8cc\	4r	4r	.
8f/J	8a\J	.	.	.
=63	=63	=63	=63	=63
4a/	4cc\	8r	8r	.
.	.	8aa\L	8ccc\L	.
4r	4r	8ff\	8fff\	.
.	.	8aa\J	8ccc\J	.
2r	2r	4ff\	4fff\	.
.	.	4r	4r	.
=64	=64	=64	=64	=64
!!pagebreak:original
*clefF4	*	*	*	*
1Bn	1a-	1ff	1ddd	viio7/V
=65	=65	=65	=65	=65
1c	1b-	1een	1gg	V7
=66	=66	=66	=66	=66
4F\	8a/L	8ff\L	4ff\	I
.	16f/L	16aa\L	.	.
.	16en/JJ	16gg\JJ	.	.
4r	16d/LL	16ff\LL	4r	.
.	16c/	16een\	.	.
*	*clefF4	*	*	*
.	16B-/	16dd\	.	.
.	16A/JJ	16cc\JJ	.	.
4r	16G\LL	16b-/LL	4r	.
.	16F\	16a/	.	.
.	16En\	16g/	.	.
.	16D\JJ	16f/JJ	.	.
4C/	16C\LL	16en/LL	8.bb-\L	V7
.	16E\	16g/	.	.
.	16F\	16a/	.	.
.	16G\JJ	16b-/JJ	16een\Jk	.
=67	=67	=67	=67	=67
!!linebreak:original
8FF/L	4F\	4a/	8ff\L	I
16F/L	.	.	16aa\L	.
16En/JJ	.	.	16gg\JJ	.
16D/LL	4r	4r	16ff\LL	.
16C/	.	.	16een\	.
16BB-/	.	.	16dd\	.
16AA/JJ	.	.	16cc\JJ	.
16GG/LL	4r	4r	16b-/LL	.
16FF/	.	.	16a/	.
16EEn/	.	.	16g/	.
16DD/JJ	.	.	16f/JJ	.
*	*clefG2	*	*	*
8CC/L	4g/	8.bb-\L	16en/LL	V7
.	.	.	16g/	.
8C/J	.	.	16a/	.
.	.	16een\Jk	16b-/JJ	.
=68	=68	=68	=68	=68
4FF'/	4a'/	4ff'\	4a'/	I
4C'/	4cc'\	4b-'\ 4gg'\	4en'\ 4cc'\ 4gg'\	V7
4F'\	4a'/	4a'\ 4ff'\	4f'\ 4cc'\ 4aa'\	I
4c'\	4c'/ 4g'/	4en'\ 4cc'\ 4bb-'\	4eeen'\	V7
=69	=69	=69	=69	=69
4F\	4c/ 4f/ 4a/	4f\ 4cc\ 4aa\	4fff\	I
4r	4r	4r	4r	.
2r	2r	2r	2r	.
*-	*-	*-	*-	*-
